icons/plexis/48/webissues.svg

<svg viewBox="0 0 48 48" xmlns="http://www.w3.org/2000/svg" xmlns:xlink="http://www.w3.org/1999/xlink">
  <linearGradient id="a" gradientTransform="matrix(0 -1 1 0 -.0000015 47.999998)" gradientUnits="userSpaceOnUse" x1="1" x2="47">
    <stop offset="0" stop-color="#315bd1"/>
    <stop offset="1" stop-color="#4166d4"/>
  </linearGradient>
  <path d="m47 24c0 22.703-.297 23-23 23-22.703 0-23-.297-23-23 0-22.703.297-23 23-23 22.703 0 23 .297 23 23z" fill="url(#a)"/>
  <path d="m12 16l4 19h3l2.5-14 2.5 14h3l4-19h-3l-2.5 13-2.5-13h-3l-2.5 13-2.5-13zm21 0v3h3v-3zm0 5v14h3v-14z" opacity=".1"/>
  <path d="m11 15l4 19h3l2.5-14 2.5 14h3l4-19h-3l-2.5 13-2.5-13h-3l-2.5 13-2.5-13zm21 0v3h3v-3zm0 5v14h3v-14z" fill="#f9f9f9"/>
</svg>

<svg xmlns="http://www.w3.org/2000/svg" viewBox="0 0 48 48">
 <defs>
  <linearGradient id="linearGradient3764" x1="1" x2="47" gradientUnits="userSpaceOnUse" gradientTransform="matrix(0,-1,1,0,-1.5e-6,47.999998)">
   <stop style="stop-color:#315bd1;stop-opacity:1"/>
   <stop offset="1" style="stop-color:#4166d4;stop-opacity:1"/>
  </linearGradient>
 </defs>
 <g>
  
  
  
 </g>
 <g>
  <path d="m 47,24 C 47,46.703 46.703,47 24,47 1.297,47 1,46.703 1,24 1,1.297 1.297,1 24,1 46.703,1 47,1.297 47,24 z" style="fill:url(#linearGradient3764);fill-opacity:1"/>
 </g>
 <g transform="translate(-42.40678,3.3559322)">
  <g>
   <!-- color: #4166d4 -->
  </g>
 </g>
 <g>
  
 </g>
 <path d="m 12,16 4,19 3,0 2.5,-14 2.5,14 3,0 4,-19 -3,0 L 25.5,29 23,16 20,16 17.5,29 15,16 z m 21,0 0,3 3,0 0,-3 z m 0,5 0,14 3,0 0,-14 z" style="fill:#000;opacity:0.1;fill-opacity:1;stroke:none;fill-rule:nonzero"/>
 <path d="m 11,15 4,19 3,0 2.5,-14 2.5,14 3,0 4,-19 -3,0 L 24.5,28 22,15 19,15 16.5,28 14,15 z m 21,0 0,3 3,0 0,-3 z m 0,5 0,14 3,0 0,-14 z" style="fill:#f9f9f9;fill-opacity:1;stroke:none;fill-rule:nonzero"/>
</svg>
